src/components/Camino/assets/reputation.svg

<svg fill="none" height="152" viewBox="0 0 126 152" width="126" xmlns="http://www.w3.org/2000/svg" xmlns:xlink="http://www.w3.org/1999/xlink"><linearGradient id="a" gradientUnits="userSpaceOnUse" x1="-510.769" x2="231.525" y1="-315.12" y2="35.4993"><stop offset="0" stop-color="#65aaff"/><stop offset="1" stop-color="#5015cf"/></linearGradient><path d="m62.9099 0-62.9099 37.9504v75.9026l62.9099 37.951 62.9101-37.951v-75.9026zm0 120.178c-24.3259 0-44.0369-19.821-44.0369-44.2758 0-24.4534 19.711-44.2754 44.0369-44.2754 24.3245 0 44.0371 19.822 44.0371 44.2754 0 24.4548-19.7126 44.2758-44.0371 44.2758z" fill="url(#a)"/><path d="m34.1899 75.9024 28.719-28.0367 28.7205 28.0367-28.7205 28.0356z" fill="#fff"/></svg>

<svg width="126" height="152" viewBox="0 0 126 152" fill="none" xmlns="http://www.w3.org/2000/svg">
<path d="M62.9099 0L0 37.9504V113.853L62.9099 151.804L125.82 113.853V37.9504L62.9099 0ZM62.9099 120.178C38.584 120.178 18.873 100.357 18.873 75.9022C18.873 51.4488 38.584 31.6268 62.9099 31.6268C87.2344 31.6268 106.947 51.4488 106.947 75.9022C106.947 100.357 87.2344 120.178 62.9099 120.178Z" fill="url(#paint0_linear)"/>
<path d="M34.1899 75.9024L62.9089 47.8657L91.6294 75.9024L62.9089 103.938L34.1899 75.9024Z" fill="white"/>
<defs>
<linearGradient id="paint0_linear" x1="-510.769" y1="-315.12" x2="231.525" y2="35.4993" gradientUnits="userSpaceOnUse">
<stop stop-color="#65AAFF"/>
<stop offset="1" stop-color="#5015CF"/>
</linearGradient>
</defs>
</svg>
